social/icons/202-min.svg

<svg xmlns="http://www.w3.org/2000/svg" viewBox="3 3 44 44"><path d="M 25 3 C 12.85 3 3 12.85 3 25 C 3 37.15 12.85 47 25 47 C 37.15 47 47 37.15 47 25 C 47 12.85 37.15 3 25 3 z M 25 11 C 32.72 11 39 17.28 39 25 C 39 32.72 32.72 39 25 39 C 17.28 39 11 32.72 11 25 C 11 17.28 17.28 11 25 11 z M 25 13 C 18.383 13 13 18.383 13 25 C 13 31.617 18.383 37 25 37 C 31.617 37 37 31.617 37 25 C 37 18.383 31.617 13 25 13 z M 22.019531 18.501953 C 22.194031 18.505203 22.366984 18.552484 22.521484 18.646484 L 31.521484 24.146484 C 31.817484 24.327484 32 24.651 32 25 C 32 25.349 31.818484 25.671516 31.521484 25.853516 L 22.521484 31.353516 C 22.361484 31.450516 22.181 31.5 22 31.5 C 21.832 31.5 21.663719 31.456094 21.511719 31.371094 C 21.195719 31.194094 21 30.861 21 30.5 L 21 19.5 C 21 19.139 21.195719 18.805906 21.511719 18.628906 C 21.670219 18.540906 21.845031 18.498703 22.019531 18.501953 z"/></svg>

<svg xmlns="http://www.w3.org/2000/svg" viewBox="3 3 44 44"><path d="M25 3C12.85 3 3 12.85 3 25s9.85 22 22 22 22-9.85 22-22S37.15 3 25 3m0 8c7.72 0 14 6.28 14 14s-6.28 14-14 14-14-6.28-14-14 6.28-14 14-14m0 2c-6.617 0-12 5.383-12 12s5.383 12 12 12 12-5.383 12-12-5.383-12-12-12m-2.98 5.502c.174.003.347.05.501.144l9 5.5a1.002 1.002 0 0 1 0 1.708l-9 5.5A1.002 1.002 0 0 1 21 30.5v-11a.999.999 0 0 1 1.02-.998"/></svg>
